!!!!SEGMENT: pl-cz--i-8--003_danka--missa-es-credo.krn
!!!cenid: 18xx:723
!!!COM: Danka
!!!COM-rism: pe30085946
!!!CDT: <1790->1810
!!!CNT:
!!!OTL: Missa Es – Credo
!!!PDT: 1800
!!!AGN: Sacred; Mass
!!!SMS-siglum: PL-CZ
!!!SMS-shelfmark: I-8
!!!NIFC-rismID: 300000103
!!!URL-scan: http://repozytorium.nifc.pl/skany/pl-cz-nut--i-8
!!!ONB-nifc: UWAGA: części Mszy: Kyrie, Gloria, Credo, Et incarnatus,
!!!SMS-variant:
!!!SMS-altvar:
**kern	**fba	**kern	**kern	**kern	**text	**kern	**text	**kern	**dynam	**text	**kern	**text	**kern	**kern	**kern	**kern	**kern
*part12	*	*part11	*part10	*part9	*part9	*part8	*part8	*part7	*	*part7	*part6	*part6	*part5	*part4	*part3	*part2	*part1
*staff12	*	*staff11	*staff10	*staff9	*staff9	*staff8	*staff8	*staff7	*	*staff7	*staff6	*staff6	*staff5	*staff4	*staff3	*staff2	*staff1
*I"Organo	*	*I"Violino IIdo	*I"Violino Primo.	*I"Baſso.	*	*I"Tenore	*	*I"Alto	*	*	*I"Canto.	*	*I"Cornu Secondo in Es.	*I"Cornu Primo in Es.	*I"Fagotto Obligato.	*I"Clarinetto. IIdo in Es.	*I"Clarinetto Primo. in Dis
*I'Org	*	*I'Vn II	*I'Vn I	*I'B.	*	*I'T.	*	*I'A.	*	*	*I'C.	*	*I'C II	*I'C I	*I'Fag.	*I'Cl I	*I'Cl I
*clefF4	*	*clefG2	*clefG2	*clefF4	*	*clefC4	*	*clefC3	*	*	*clefC1	*	*clefG2	*clefG2	*clefF4	*clefG2	*clefG2
*	*	*	*	*	*	*	*	*	*	*	*	*	*ITrd5c9	*ITrd5c9	*	*ITrd1c2	*ITrd1c2
*k[b-e-a-]	*	*k[b-e-a-]	*k[b-e-a-]	*k[b-e-a-]	*	*k[b-e-a-]	*	*k[b-e-a-]	*	*	*k[b-e-a-]	*	*k[b-e-a-]	*k[b-e-a-]	*k[b-e-a-]	*k[b-e-a-]	*k[b-e-a-]
*M4/4	*	*M4/4	*M4/4	*M4/4	*	*M4/4	*	*M4/4	*	*	*M4/4	*	*M4/4	*M4/4	*M4/4	*M4/4	*M4/4
=1	=1	=1	=1	=1	=1	=1	=1	=1	=1	=1	=1	=1	=1	=1	=1	=1	=1
*	*	*	*2\right	*2\right	*	*2\right	*	*2\right	*	*	*2\right	*	*	*	*2\right	*	*2\right
!	!	!	!	!	!	!	!	!	!	!	!	!	!LO:TX:a:t=andante	!	!	!LO:TX:a:t=P:problem:UWAGA:w źródle błędny wybór transpozycji instrumentu - użyto klarnetu W STROJU B (graficznie tak samo jak w źródle, por. wątki #79 i #95)	!LO:TX:a:t=P:problem:UWAGA:w źródle błędny wybór transpozycji instrumentu - użyto klarnetu W STROJU B (graficznie tak samo jak w źródle, por. wątki #79 i #95)
!LO:TX:a:t=allabrewe. and(an)te	!	!	!	!	!	!	!	!	!	!	!	!	!	!	!LO:TX:a:t=andante	!	!
!LO:TX:a:t=P:problem:kolejność znaków E-BB-A-	!	!LO:TX:a:t=and(an)te	!LO:TX:a:t=allab(reve). and(an)te	!LO:TX:a:t=andante	!	!LO:TX:a:t=andantes	!	!	!	!	!	!	!	!LO:TX:a:t=and(an)te	!LO:TX:b:t=Credo	!LO:TX:a:t=andante	!LO:TX:a:t=allabr(eve)&colon; and(an)te
!LO:TX:b:t=Credo.	!	!LO:TX:b:t=Credo	!LO:TX:b:t=Credo	!LO:TX:a:t=P:problem:kolejność znaków E- BB- A-	!	!LO:TX:a:t=P:problem:kolejność znaków A- e- B-	!	!LO:TX:a:t=andante	!	!	!LO:TX:a:t=andante.	!	!	!LO:TX:b:t=Credo.	!LO:TX:a:t=P:problem:kolejność znaków E- BB- A-	!LO:TX:b:t=Credo	!LO:TX:b:t=Credo
!	!	!	!	!	!	!	!	!	!	!	!	!	!LO:TX:a:t=de.:rj	!LO:TX:a:t=de.:rj	!	!	!
4E-\	.	2g/	2ee-\	2E-\	Cre-	2B-\	Cre-	2g\	.	Cre-	2ee-\	Cre-	2E-/	2E-/	4E-\	2g/	2ee-\
4E-\	.	.	.	.	.	.	.	.	.	.	.	.	.	.	4E-\	.	.
4A-\	X 6	8b-/L	8gg\L	4A-\	.	4c\	.	8b-\L	.	.	8gg\L	.	4G/	4G/	4A-\	8b-/L	8gg\L
.	.	8a-/	8ff\	.	.	.	.	8a-\	.	.	8ff\	.	.	.	.	8a-/	8ff\
4B-\	.	8g/	8ee-\	4B-\	.	4B-\	.	8g\	.	.	8ee-\	.	4B-/	4B-/	4B-\	8g/	8ee-\
.	.	8f/J	8dd\J	.	.	.	.	8f\J	.	.	8dd\J	.	.	.	.	8f/J	8dd\J
=2	=2	=2	=2	=2	=2	=2	=2	=2	=2	=2	=2	=2	=2	=2	=2	=2	=2
*2\right	*	*	*	*	*	*	*	*	*	*	*	*	*	*	*	*	*
2E-\	.	4g/	4ee-\	2E-\	-do	2B-\	-do	2g\	.	-do	2ee-\	-do	4E-/	4e-\	2E-\	2g/	2ee-\
*	*	*Xtuplet	*Xtuplet	*	*	*	*	*	*	*	*	*	*	*	*	*	*
.	.	12g/L	12b-\L	.	.	.	.	.	.	.	.	.	4E-/	4E-/	.	.	.
.	.	12a-/	12cc\	.	.	.	.	.	.	.	.	.	.	.	.	.	.
.	.	12g/J	12b-\J	.	.	.	.	.	.	.	.	.	.	.	.	.	.
4r	.	4g/	4ee-\	4r	.	4r	.	4r	.	.	4r	.	4G/	4G/	4r	4r	4r
4E-\	.	12b-\L	12gg\L	4E-\	in	4e-\	in	4b-\	.	in	4gg\	in	4B-/	4B-/	4E-\	4b-\	4gg\
.	.	12cc\	12aa-\	.	.	.	.	.	.	.	.	.	.	.	.	.	.
.	.	12b-\J	12gg\J	.	.	.	.	.	.	.	.	.	.	.	.	.	.
=3	=3	=3	=3	=3	=3	=3	=3	=3	=3	=3	=3	=3	=3	=3	=3	=3	=3
4E-\	6 4	4cc\	4aa-\	4E-\	u-	4e-\	u-	(>4cc\	.	u-	(>4aa-\	u-	4E-/	4E-/	4E-\	4cc\	(>4aa-\
4E-\	9 3	4b-\	4gg\	4E-\	.	4e-\	.	4b-\)	.	.	4gg\)	.	4r	4r	4E-\	4b-\	4gg\)
4A-\	8 6	4a-\	4ff\	4A-\	.	4c\	-num	(>4a-\	.	-num	(>4ff\	-num	4BB-/	4B-/	4A-\	4a-\	(>4ff\
4An\	7 5	4g\	4ee-\	4An\	-num	4B-\	.	4g\)	.	.	4ee-\)	.	4r	4r	4An\	4g\	4ee-\)
!	!	!	!	!	!	!	!	!	!	!	!LO:LB:g=original	!	!	!	!	!	!
=4	=4	=4	=4	=4	=4	=4	=4	=4	=4	=4	=4	=4	=4	=4	=4	=4	=4
*	*	*	*	*	*	*	*	*Xtuplet	*	*	*	*	*	*	*	*	*
!	!	!	!	!	!	!	!	!	!	!	!LO:TUP:a:problem:klamra łukowa	!	!	!	!	!LO:TUP:b:problem:klamra łukowa	!LO:TUP:a:problem:klamra łukowa
4B-\	.	12f/L	12dd\L	4B-\	De-	4B-\	De-	12f\L	.	De-	12dd\L	De-	4r	4r	4B-\	12f/L	12dd\L
.	.	12g/	12ee-\	.	.	.	.	12g\	.	.	12ee-\	.	.	.	.	12g/	12ee-\
.	.	12a-/J	12ff\J	.	.	.	.	12a-\J	.	.	12ff\J	.	.	.	.	12a-/J	12ff\J
4E-\	.	4g/	4ee-\	4E-\	-um	4B-\	-um	4g\	.	-um	4ee-\	-um	4E-/	4E-/	4E-\	4g/	4ee-\
!	!	!LO:LB:g=original	!	!LO:LB:g=original	!	!	!	!	!	!	!	!	!	!	!	!	!
2r	.	12f/L	12g/L	2r	.	2r	.	2r	.	.	2r	.	4G/	4G/	2r	2r	2r
.	.	12g/	12a-/	.	.	.	.	.	.	.	.	.	.	.	.	.	.
.	.	12f/J	12g/J	.	.	.	.	.	.	.	.	.	.	.	.	.	.
.	.	12g/L	12b-/L	.	.	.	.	.	.	.	.	.	4B-/	4B-/	.	.	.
.	.	12a-/	12cc/	.	.	.	.	.	.	.	.	.	.	.	.	.	.
.	.	12g/J	12b-/J	.	.	.	.	.	.	.	.	.	.	.	.	.	.
!	!	!	!LO:LB:g=original	!	!	!LO:LB:g=original	!	!LO:LB:g=original	!	!	!	!	!LO:LB:g=original	!LO:LB:g=original	!	!	!
=5	=5	=5	=5	=5	=5	=5	=5	=5	=5	=5	=5	=5	=5	=5	=5	=5	=5
4E-\	.	2g/	2ee-\	2E-\	Pa-	2B-\	Pa-	2g\	.	Pa-	2ee-\	Pa-	2E-/	2E-/	4E-\	2g/	2ee-\
4E-\	.	.	.	.	.	.	.	.	.	.	.	.	.	.	4E-\	.	.
4A-\	X 6	8b-/L	8gg\L	4A-\	.	4c\	.	8b-\L	.	.	(>8gg\L	.	4G/	4G/	4A-\	8b-/L	8gg\L
.	.	8a-/	8ff\	.	.	.	.	8a-\	.	.	8ff\	.	.	.	.	8a-/	8ff\
4B-\	.	8g/	8ee-\	4B-\	.	4B-\	.	8g\	.	.	8ee-\	.	4B-/	4B-/	4B-\	8g/	8ee-\
.	.	8f/J	8dd\J	.	.	.	.	8f\J	.	.	8dd\J)	.	.	.	.	8f/J	8dd\J
!LO:LB:g=original	!	!	!	!	!	!	!	!	!	!	!	!	!	!	!LO:LB:g=original	!LO:LB:g=original	!LO:LB:g=original
=6	=6	=6	=6	=6	=6	=6	=6	=6	=6	=6	=6	=6	=6	=6	=6	=6	=6
2E-\	.	4g/	4ee-\	2E-\	-trem	2B-\	-trem	2g\	.	-trem	2ee-\	-trem	4E-/	4e-\	2E-\	2g/	2ee-\
.	.	12g/L	12b-\L	.	.	.	.	.	.	.	.	.	4G/	4G/	.	.	.
.	.	12a-/	12cc\	.	.	.	.	.	.	.	.	.	.	.	.	.	.
.	.	12g/J	12b-\J	.	.	.	.	.	.	.	.	.	.	.	.	.	.
4r	.	4g/	4ee-\	4r	.	4r	.	4r	.	.	4r	.	4B-/	4B-/	4r	4r	4r
4E-\	.	12b-\L	12gg\L	4E-\	o-	4e-\	o-	4b-\	.	o-	4ee-\	o-	4e-\	4e-\	4E-\	4b-\	4gg\
.	.	12cc\	12aa-\	.	.	.	.	.	.	.	.	.	.	.	.	.	.
.	.	12b-\J	12gg\J	.	.	.	.	.	.	.	.	.	.	.	.	.	.
=7	=7	=7	=7	=7	=7	=7	=7	=7	=7	=7	=7	=7	=7	=7	=7	=7	=7
*	*	*	*	*	*	*	*	*	*	*	*	*	*2\right	*2\right	*	*	*
4E-\	.	12cc\L	12aa-\L	4E-\	-mni-	4e-\	-mni-	4cc\	.	-mni-	(>4aa-\	-mni-	2e-\	2e-\	4E-\	4cc\	4aa-\
.	.	12dd\	12bb-\	.	.	.	.	.	.	.	.	.	.	.	.	.	.
.	.	12cc\J	12aa-\J	.	.	.	.	.	.	.	.	.	.	.	.	.	.
4E-\	.	12b-\L	12gg\L	4E-\	.	4e-\	.	4b-\	.	.	4gg\)	.	.	.	4E-\	4b-\	4gg\
.	.	12cc\	12aa-\	.	.	.	.	.	.	.	.	.	.	.	.	.	.
.	.	12b-\J	12gg\J	.	.	.	.	.	.	.	.	.	.	.	.	.	.
4A-\	8 6	12a-/L	12ff\L	4A-\	-po-	4c\	-po-	4a-\	.	-po-	4ff\	-po-	2E-/	2E-/	4A-\	4a-\	4ff\
.	.	12b-/	12gg\	.	.	.	.	.	.	.	.	.	.	.	.	.	.
.	.	12a-/J	12ff\J	.	.	.	.	.	.	.	.	.	.	.	.	.	.
4An\	7 5	12g/L	12ee-\L	8An\	.	8c\	.	8g\	.	.	8ee-\	.	.	.	4An\	4g\	4ee-\
.	.	12a-/	12ff\	.	.	.	.	.	.	.	.	.	.	.	.	.	.
.	.	.	.	8A\	.	8c\	.	8g\	.	.	8ee-\	.	.	.	.	.	.
.	.	12g/J	12ee-\J	.	.	.	.	.	.	.	.	.	.	.	.	.	.
!	!	!LO:LB:g=original	!	!	!	!	!	!	!	!	!LO:LB:g=original	!	!	!	!	!	!
=8	=8	=8	=8	=8	=8	=8	=8	=8	=8	=8	=8	=8	=8	=8	=8	=8	=8
4B-\	6 4	4g/	4ee-\	4B-\	-ten-	4B-\	-ten-	4g\	.	-ten-	4ee-\	-ten-	2BB-/	2B-/	4B-\	4f/	4ee-\
4BB-/	5 3	4f/	4dd\	4BB-/	-tem	4B-\	-tem	4f\	f	-tem	4dd\	-tem	.	.	4BB-/	4g/	4dd\
2r	.	2r	2r	4r	.	2r	.	2r	.	.	2r	.	2r	2r	2r	2r	2r
.	.	.	.	4r	.	.	.	.	.	.	.	.	.	.	.	.	.
=9	=9	=9	=9	=9	=9	=9	=9	=9	=9	=9	=9	=9	=9	=9	=9	=9	=9
4B-\	.	8f/	8dd\L	1B-	fa-	1B-	fa-	1f	.	fa-	1dd	fa-	1B-	1f	4B-\	00r	00r
.	.	4f/	8ff\	.	.	.	.	.	.	.	.	.	.	.	.	.	.
4B-\	.	.	8bb-\	.	.	.	.	.	.	.	.	.	.	.	4B-\	.	.
.	.	4f/	8ff\J	.	.	.	.	.	.	.	.	.	.	.	.	.	.
4B-\	.	.	8dd\L	.	.	.	.	.	.	.	.	.	.	.	4B-\	.	.
.	.	4f/	8ff\	.	.	.	.	.	.	.	.	.	.	.	.	.	.
4B-\	.	.	8dd\	.	.	.	.	.	.	.	.	.	.	.	4B-\	.	.
.	.	8f/	8ff\J	.	.	.	.	.	.	.	.	.	.	.	.	.	.
!	!	!	!LO:LB:g=original	!LO:LB:g=original	!	!LO:LB:g=original	!	!	!	!	!	!	!	!	!	!	!
=10	=10	=10	=10	=10	=10	=10	=10	=10	=10	=10	=10	=10	=10	=10	=10	=10	=10
4An\	6 5	8f/	8ee-\L	2An\	-cto-	2c\	-cto-	2f\	.	-cto-	2ee-\	-cto-	1B-	1f	4An\	.	.
.	.	4f/	8aan\	.	.	.	.	.	.	.	.	.	.	.	.	.	.
4A\	.	.	8ccc\	.	.	.	.	.	.	.	.	.	.	.	4A\	.	.
.	.	4f/	8aa\J	.	.	.	.	.	.	.	.	.	.	.	.	.	.
4A\	.	.	8ee-\L	2A\	-rem	2c\	-rem	2f\	.	-rem	2ee-\	-rem	.	.	4A\	.	.
.	.	4f/	8ff\	.	.	.	.	.	.	.	.	.	.	.	.	.	.
4A\	.	.	8ee-\	.	.	.	.	.	.	.	.	.	.	.	4A\	.	.
.	.	8f/	8ff\J	.	.	.	.	.	.	.	.	.	.	.	.	.	.
!	!	!	!	!	!	!	!	!LO:LB:g=original	!	!	!	!	!	!	!	!	!
=11	=11	=11	=11	=11	=11	=11	=11	=11	=11	=11	=11	=11	=11	=11	=11	=11	=11
4B-\	.	8f/	8dd\L	2B-\	cae-	2B-\	cae-	2f\	.	cae-	2dd\	cae-	1B-	1f	4B-\	.	.
.	.	4f/	8ff\	.	.	.	.	.	.	.	.	.	.	.	.	.	.
4B-\	.	.	8bb-\	.	.	.	.	.	.	.	.	.	.	.	4B-\	.	.
.	.	4f/	8ff\J	.	.	.	.	.	.	.	.	.	.	.	.	.	.
4B-\	.	.	8dd\L	2B-\	-li	2B-\	-li	2f\	.	-li	2dd\	-li	.	.	4B-\	.	.
.	.	4f/	8ff\	.	.	.	.	.	.	.	.	.	.	.	.	.	.
4B-\	.	.	8dd\	.	.	.	.	.	.	.	.	.	.	.	4B-\	.	.
.	.	8f/	8ff\J	.	.	.	.	.	.	.	.	.	.	.	.	.	.
!	!	!	!	!	!	!	!	!	!	!	!	!	!	!	!LO:LB:g=original	!	!
=12	=12	=12	=12	=12	=12	=12	=12	=12	=12	=12	=12	=12	=12	=12	=12	=12	=12
*	*	*	*	*	*ij	*	*ij	*	*	*ij	*	*ij	*	*	*	*	*
4An\	6 5	8f/	8ee-\L	2An\	cae-	2c\	cae-	2f\	.	cae-	2ee-\	cae-	1B-	1f	4An\	.	.
.	.	4f/	8aan\	.	.	.	.	.	.	.	.	.	.	.	.	.	.
4A\	.	.	8ccc\	.	.	.	.	.	.	.	.	.	.	.	4A\	.	.
.	.	4f/	8aa\J	.	.	.	.	.	.	.	.	.	.	.	.	.	.
4A\	.	.	8ee-\L	2A\	-li	2c\	-li	2f\	.	-li	2ee-\	-li	.	.	4A\	.	.
*	*	*	*	*	*Xij	*	*Xij	*	*	*Xij	*	*Xij	*	*	*	*	*
.	.	4f/	8ff\	.	.	.	.	.	.	.	.	.	.	.	.	.	.
4A\	.	.	8ee-\	.	.	.	.	.	.	.	.	.	.	.	4A\	.	.
.	.	8f/	8ff\J	.	.	.	.	.	.	.	.	.	.	.	.	.	.
!LO:LB:g=original	!	!LO:LB:g=original	!	!	!	!	!	!	!	!	!	!	!LO:LB:g=original	!LO:LB:g=original	!	!	!
=13	=13	=13	=13	=13	=13	=13	=13	=13	=13	=13	=13	=13	=13	=13	=13	=13	=13
4B-\	.	8f/L	8dd\L	2B-\	cae-	2B-\	cae-	2f\	.	cae-	2dd\	cae-	2BB-/	2B-/	4B-\	2f/	2dd\
.	.	8d/	8b-\	.	.	.	.	.	.	.	.	.	.	.	.	.	.
4B-\	.	8b-/	8ff\	.	.	.	.	.	.	.	.	.	.	.	4B-\	.	.
.	.	8f/J	8dd\J	.	.	.	.	.	.	.	.	.	.	.	.	.	.
8BB-/L	.	12dd\L	12bb-\L	8BB-/L	.	4d\	-li	4f\	.	-li	4ff\	-li	2BB-/	2B-/	8BB-/L	4f/	4ff\
.	.	12ff\	12aa-\	.	.	.	.	.	.	.	.	.	.	.	.	.	.
8C/	.	.	.	8C/J	-li	.	.	.	.	.	.	.	.	.	8C/	.	.
.	.	12ee-\J	12gg\J	.	.	.	.	.	.	.	.	.	.	.	.	.	.
8D/	.	12dd\L	12ff\L	8D/L	.	4B-\	et	4f\	.	et	4dd\	et	.	.	8D/	4f/	4dd\
.	.	12cc\	12ee-\	.	.	.	.	.	.	.	.	.	.	.	.	.	.
8E-/J	.	.	.	8E-/J	et	.	.	.	.	.	.	.	.	.	8E-/J	.	.
.	.	12b-\J	12dd\J	.	.	.	.	.	.	.	.	.	.	.	.	.	.
=14	=14	=14	=14	=14	=14	=14	=14	=14	=14	=14	=14	=14	=14	=14	=14	=14	=14
4F\	6 4	4b-/	4dd\	4F\	ter-	4B-\	ter-	4f\	.	ter-	4dd\	ter-	2BB-/	2B-/	4F\	4f/	4dd\
4FF/	5 3	4an/	4cc\	4FF/	-ra	4An\	-ra	4f\	.	-ra	4cc\	-rae	.	.	4FF/	4f/	4cc\
2r	.	4r	4r	2r	.	2r	.	2r	.	.	2r	.	2r	2r	2r	2r	2r
!	!	!LO:TX:b:t=P:problem:dynamika wpisana czerwonym atramentem: "p:"	!LO:TX:a:t=P:problem:dynamika wpisana czerwonym atramentem: "p:"	!	!	!	!	!	!	!	!	!	!	!	!	!	!
.	.	12a/L	12f/L	.	.	.	.	.	.	.	.	.	.	.	.	.	.
.	.	12b-/	12g/	.	.	.	.	.	.	.	.	.	.	.	.	.	.
.	.	12a/J	12f/J	.	.	.	.	.	.	.	.	.	.	.	.	.	.
!	!	!	!LO:LB:g=original	!	!	!	!	!	!	!	!LO:LB:g=original	!	!	!	!	!	!
=15	=15	=15	=15	=15	=15	=15	=15	=15	=15	=15	=15	=15	=15	=15	=15	=15	=15
2r	.	4d/	4b-\	2r	.	2r	.	2r	.	.	2r	.	1r	1r	2r	2r	2r
.	.	12d/L	12b-\L	.	.	.	.	.	.	.	.	.	.	.	.	.	.
.	.	12e-/	12cc\	.	.	.	.	.	.	.	.	.	.	.	.	.	.
.	.	12d/J	12b-\J	.	.	.	.	.	.	.	.	.	.	.	.	.	.
4r	.	4f/	4dd\	4r	.	4r	.	4r	.	.	4r	.	.	.	4r	4r	4r
!	!	!	!LO:TX:a:t=P:problem:dynamika wpisana czerwonym atramentem: "for:"	!	!	!	!	!	!	!	!	!	!	!	!	!	!
4BB-/	.	8g/L	8ee-\L	4B-\	in	4F/	in	4e-\	.	in	4dd\	in	.	.	4BB-/	4e-/	(>4dd\
.	.	8f/J	8dd\J	.	.	.	.	.	.	.	.	.	.	.	.	.	.
!	!	!	!	!LO:LB:g=original	!	!	!	!	!	!	!	!	!	!	!	!	!
=16	=16	=16	=16	=16	=16	=16	=16	=16	=16	=16	=16	=16	=16	=16	=16	=16	=16
4F\	7 n	4e-/	4cc\	4F\	u-	4F/	u-	4e-\	.	u-	4cc\	u-	2BB-/	2B-/	4F\	4e-/	4cc\)
4BB-/	.	4d/	4b-\	4BB-/	-num	4F/	-num	4d\	.	-num	4b-\	-num	.	.	4BB-/	4d/	4b-\
2r	.	4r	4r	2r	.	2r	.	2r	.	.	2r	.	2r	2r	2r	2r	2r
!	!	!	!LO:TX:a:t=P:problem:dynamika wpisana czerwonym atramentem: "p:"	!	!	!	!	!	!	!	!	!	!	!	!	!	!
.	.	12d/L	12b-\L	.	.	.	.	.	.	.	.	.	.	.	.	.	.
.	.	12e-/	12cc\	.	.	.	.	.	.	.	.	.	.	.	.	.	.
.	.	12d/J	12b-\J	.	.	.	.	.	.	.	.	.	.	.	.	.	.
!	!	!LO:LB:g=original	!	!	!	!LO:LB:g=original	!	!	!	!	!	!	!	!	!	!LO:LB:g=original	!LO:LB:g=original
=17	=17	=17	=17	=17	=17	=17	=17	=17	=17	=17	=17	=17	=17	=17	=17	=17	=17
2r	.	4f/	4dd\	2r	.	2r	.	2r	.	.	2r	.	1r	1r	2r	2r	2r
.	.	12f/L	12dd\L	.	.	.	.	.	.	.	.	.	.	.	.	.	.
.	.	12g/	12ee-\	.	.	.	.	.	.	.	.	.	.	.	.	.	.
.	.	12f/J	12dd\J	.	.	.	.	.	.	.	.	.	.	.	.	.	.
!	!	!	!LO:TX:a:t=P:problem:dynamika wpisana czerwonym atramentem: "for:"	!	!	!	!	!	!	!	!	!	!	!	!	!	!
4r	.	4dd\	4ff\	4r	.	4r	.	4r	.	.	4r	.	.	.	4r	4r	4r
4B-\	.	4dd\	8bb-\L	4B-\	Do-	4d\	Do-	4f\	.	Do-	4ff\	Do-	.	.	4B-\	4f/	4ff\
.	.	.	8ff\J	.	.	.	.	.	.	.	.	.	.	.	.	.	.
!	!	!	!	!	!	!	!	!LO:LB:g=original	!	!	!	!	!	!	!	!	!
=18	=18	=18	=18	=18	=18	=18	=18	=18	=18	=18	=18	=18	=18	=18	=18	=18	=18
4F\	7 n	4cc\	4ee-\	4F\	-mi-	4c\	-mi-	4f\	.	-mi-	4ee-\	-mi-	2BB-/	2B-/	4F\	4f/	4ee-\
4BB-/	.	4b-\	4dd\	4BB-/	-num	4B-\	-num	4f\	.	-num	4dd\	-num	.	.	4BB-/	4f/	4dd\
2r	.	2r	2r	2r	.	2r	.	2r	.	.	2r	.	2r	2r	2r	2r	2r
!	!	!	!	!	!	!	!	!	!	!	!LO:PB:g=original	!	!	!	!LO:LB:g=original	!	!
=19	=19	=19	=19	=19	=19	=19	=19	=19	=19	=19	=19	=19	=19	=19	=19	=19	=19
*tremolo	*	*	*	*	*	*	*	*	*	*	*	*	*	*	*tremolo	*	*
8F\L	6 4	8dd\	8bb-\	1F	Do-	2c\	Do-	1dd	.	In	1bb-	In	1B-	1f	8F\L	1dd	1bb-
8F\	.	4dd\	4bb-\	.	.	.	.	.	.	.	.	.	.	.	8F\	.	.
8F\	.	.	.	.	.	.	.	.	.	.	.	.	.	.	8F\	.	.
8F\J	.	4dd\	4bb-\	.	.	.	.	.	.	.	.	.	.	.	8F\J	.	.
8F\L	.	.	.	.	.	2f\	.	.	.	.	.	.	.	.	8F\L	.	.
8F\	.	4dd\	4bb-\	.	.	.	.	.	.	.	.	.	.	.	8F\	.	.
8F\	.	.	.	.	.	.	.	.	.	.	.	.	.	.	8F\	.	.
8F\J	.	8dd\	8bb-\	.	.	.	.	.	.	.	.	.	.	.	8F\J	.	.
*Xtremolo	*	*	*	*	*	*	*	*	*	*	*	*	*	*	*Xtremolo	*	*
=20	=20	=20	=20	=20	=20	=20	=20	=20	=20	=20	=20	=20	=20	=20	=20	=20	=20
*	*	*	*	*	*	*	*	*	*	*	*	*	*	*	*	*2\right	*
8E-\L	6_ 4_ 2_	8cc\	8aan\	2E-\	-mi-	2f\	.	2cc\	.	u-	2aan\	u-	1B-	1f	8E-\L	2cc\	2aa\
8F\	.	4cc\	4aa\	.	.	.	.	.	.	.	.	.	.	.	8F\	.	.
8E-\	.	.	.	.	.	.	.	.	.	.	.	.	.	.	8E-\	.	.
8F\J	.	4cc\	4aa\	.	.	.	.	.	.	.	.	.	.	.	8F\J	.	.
!LO:TX:t=P:problem:belka wygląda jakby była podwójna	!	!	!	!	!	!	!	!	!	!	!	!	!	!	!	!	!
8E-\L	.	.	.	2E-\	-num	2f\	-mi-	2cc\	.	-num	2aa\	-num	.	.	8E-\L	2cc\	2aa\
8F\	.	4cc\	4aa\	.	.	.	.	.	.	.	.	.	.	.	8F\	.	.
8E-\	.	.	.	.	.	.	.	.	.	.	.	.	.	.	8E-\	.	.
8F\J	x	8cc\	8aa\	.	.	.	.	.	.	.	.	.	.	.	8F\J	.	.
!LO:LB:g=original	!	!	!LO:LB:g=original	!	!	!	!	!	!	!	!	!	!	!	!	!	!
=21	=21	=21	=21	=21	=21	=21	=21	=21	=21	=21	=21	=21	=21	=21	=21	=21	=21
4D\	.	4b-\	8bb-\L	4D\	Je-	4f\	-num	4b-\	.	Do-	8bb-\L	Do-	4B-/	4B-/	4D\	4b-\	8bb-\L
.	.	.	8ff\	.	.	.	.	.	.	.	8ff\J	.	.	.	.	.	8ff\J
4E-\	.	8dd\L	8gg\	4E-\	-sum	4r	.	4cc\	.	.	8gg\L	.	4r	4r	4E-\	4cc\	8gg\L
.	.	8cc\J	8ee-\J	.	.	.	.	.	.	.	8ee-\J	.	.	.	.	.	8ee-\J
!	!	!LO:LB:g=original	!	!	!	!	!	!	!	!	!	!	!	!LO:LB:g=original	!	!	!
4F\	6 4	4b-\	4dd\	4F\	Chri-	4r	.	4b-\	.	.	4dd\	.	4BB-/	4B-/	4F\	4b-\	4dd\
!	!	!LO:SIC:s=an	!	!	!	!	!	!	!	!	!	!	!	!	!	!	!
!LO:TX:t=P:problem:nieczytelne oznaczenie w bc. Przyjęto "5 9"	!	!	!	!	!	!	!	!	!	!	!	!	!	!	!	!	!
4FF/	5 8	4a#X\	4cc\	4FF/	.	4e-\	Je-	4an\	.	-mi-	4cc\	-mi-	4r	4r	4FF/	4a\	4cc\
!	!	!	!	!LO:PB:g=original	!	!	!	!	!	!	!	!	!LO:LB:g=original	!	!	!	!
=22	=22	=22	=22	=22	=22	=22	=22	=22	=22	=22	=22	=22	=22	=22	=22	=22	=22
!LO:TX:b:t=|:problem	!	!	!	!	!	!	!	!	!	!	!	!	!	!	!	!	!
4BB-/	.	4b-/	4b-/	2BB-/	-stum	2d\	-sum	2b-\	.	-num	2b-\	-num	00r	00r	4BB-/	2b-\	2b-\
!LO:TX:a:t=|:problem	!	!	!	!	!	!	!	!	!	!	!	!	!	!	!	!	!
4D\	.	4d/	4d/	.	.	.	.	.	.	.	.	.	.	.	4D/	.	.
!LO:TX:a:t=|:problem	!	!	!	!	!	!	!	!	!	!	!	!	!	!	!	!	!
!	!	!	!LO:TX:b:t=P:problem:dynamika wpisana czerwonym atramentem: "piano"	!	!	!	!	!	!	!	!	!	!	!	!	!	!
4E-\	.	4e-/	4e-/	2r	.	2r	.	2r	.	.	2r	.	.	.	4E-/	2r	2r
!LO:TX:a:t=|:problem	!	!	!	!	!	!	!	!	!	!	!	!	!	!	!	!	!
4F\	.	4f/	4f/	.	.	.	.	.	.	.	.	.	.	.	4F/	.	.
=23	=23	=23	=23	=23	=23	=23	=23	=23	=23	=23	=23	=23	=23	=23	=23	=23	=23
!	!	!	!	!	!	!	!	!	!	!	!	!	!	!	!	!LO:TX:a:t=P:problem:nad nutą czerwonym atramenetem: "Solo"	!LO:TX:a:t=P:problem:nad nutą czerwonym atramenetem: "Solo"
2BB-/	.	4B-/	4B-/	00r	.	00r	.	1dd	.	Je-	1ff	Je-	.	.	2BB-/	1dd	1ff
.	.	4B-/	4B-/	.	.	.	.	.	.	.	.	.	.	.	.	.	.
2r	.	4B-/	4B-/	.	.	.	.	.	.	.	.	.	.	.	2r	.	.
.	.	4B-/	4B-/	.	.	.	.	.	.	.	.	.	.	.	.	.	.
=24	=24	=24	=24	=24	=24	=24	=24	=24	=24	=24	=24	=24	=24	=24	=24	=24	=24
00r	.	4f/	4f/	.	.	.	.	1cc	.	.	1ee-	.	.	.	00r	1cc	1ee-
.	.	4f/	4f/	.	.	.	.	.	.	.	.	.	.	.	.	.	.
.	.	4f/	4f/	.	.	.	.	.	.	.	.	.	.	.	.	.	.
.	.	4f/	4f/	.	.	.	.	.	.	.	.	.	.	.	.	.	.
!	!	!	!	!	!	!	!	!	!	!	!LO:LB:g=original	!	!	!	!	!	!
=25	=25	=25	=25	=25	=25	=25	=25	=25	=25	=25	=25	=25	=25	=25	=25	=25	=25
.	.	4B-/	4B-/	.	.	.	.	2b-\	.	-sum	2dd\	-sum	.	.	.	2b-\	2dd\
.	.	4B-/	4B-/	.	.	.	.	.	.	.	.	.	.	.	.	.	.
.	.	4B-/	4B-/	.	.	.	.	4r	.	.	4r	.	.	.	.	4r	4r
.	.	4B-/	4B-/	.	.	.	.	4b-\	.	Chri-	4dd\	Chri-	.	.	.	4b-\	4dd\
!	!	!	!	!	!	!	!	!LO:LB:g=original	!	!	!	!	!	!	!	!LO:LB:g=original	!LO:LB:g=original
=26	=26	=26	=26	=26	=26	=26	=26	=26	=26	=26	=26	=26	=26	=26	=26	=26	=26
.	.	4f/	4f/	.	.	.	.	4an\	.	.	4cc\	.	00r	00r	.	4a\	4cc\
.	.	4f/	4f/	.	.	.	.	4b-\	.	-stum	4dd\	-stum	.	.	.	4b-\	4dd\
.	.	4f/	4f/	.	.	.	.	4cc\	.	.	4ee-\	.	.	.	.	4cc\	4ee-\
.	.	4f/	4f/	.	.	.	.	8b-\L	.	fi-	8dd\L	fi-	.	.	.	8b-\L	8dd\L
.	.	.	.	.	.	.	.	8a\J	.	-li-	8cc\J	-li-	.	.	.	8a\J	8cc\J
!	!	!	!	!	!	!LO:LB:g=original	!	!	!	!	!	!	!	!	!	!LO:TX:a:t=P:problem:skreślony takt po tym takcie	!LO:TX:a:t=P:problem:skreślony takt po tym takcie
=27	=27	=27	=27	=27	=27	=27	=27	=27	=27	=27	=27	=27	=27	=27	=27	=27	=27
.	.	4B-/	4B-/	1d	Fi-	1f	Fi-	2b-\	.	-um	2dd\	-um	.	.	.	1dd	1ff
.	.	4B-/	4B-/	.	.	.	.	.	.	.	.	.	.	.	.	.	.
.	.	4B-/	4B-/	.	.	.	.	2r	.	.	2r	.	.	.	.	.	.
.	.	4B-/	4B-/	.	.	.	.	.	.	.	.	.	.	.	.	.	.
!	!	!LO:LB:g=original	!	!	!	!	!	!	!	!	!	!	!	!	!	!	!
=28	=28	=28	=28	=28	=28	=28	=28	=28	=28	=28	=28	=28	=28	=28	=28	=28	=28
00r	.	4f/	4f/	1c	-li-	1e-	-li-	00r	.	.	00r	.	.	.	00r	1cc	1ee-
.	.	4f/	4f/	.	.	.	.	.	.	.	.	.	.	.	.	.	.
.	.	4f/	4f/	.	.	.	.	.	.	.	.	.	.	.	.	.	.
.	.	4f/	4f/	.	.	.	.	.	.	.	.	.	.	.	.	.	.
!	!	!	!LO:LB:g=original	!	!	!	!	!	!	!	!	!	!	!	!	!	!
=29	=29	=29	=29	=29	=29	=29	=29	=29	=29	=29	=29	=29	=29	=29	=29	=29	=29
.	.	4B-/	4B-/	2B-\	-um	2d\	-um	.	.	.	.	.	.	.	.	2b-\	2dd\
.	.	4B-/	4B-/	.	.	.	.	.	.	.	.	.	.	.	.	.	.
.	.	4d/	4d/	4r	.	4r	.	.	.	.	.	.	.	.	.	4r	4r
.	.	4B-/	4B-/	4B-\	De-	4d\	de-	.	.	.	.	.	.	.	.	4b-\	4dd\
=30	=30	=30	=30	=30	=30	=30	=30	=30	=30	=30	=30	=30	=30	=30	=30	=30	=30
.	.	4f/	4f/	4An\	-i	(>4c\	-i	.	.	.	.	.	0r	0r	.	4a\	(>4cc\
.	.	4f/	4f/	4B-\	u-	4d\)	u-	.	.	.	.	.	.	.	.	4b-\	4dd\)
.	.	4e-/	4e-/	4c\	-ni-	(>4e-\	-ni-	.	.	.	.	.	.	.	.	4cc\	(>4ee-\
.	.	4en/	4en/	4B-\	-ge-	4d\)	-ge-	.	.	.	.	.	.	.	.	4b-\	4dd\)
=31	=31	=31	=31	=31	=31	=31	=31	=31	=31	=31	=31	=31	=31	=31	=31	=31	=31
.	.	4f/	4f/	4B-\	-ni-	4d\	-ni-	.	.	.	.	.	.	.	.	4b-\	4dd\
.	.	4f/	4f/	4An\	-tum	4c\	-tum	.	.	.	.	.	.	.	.	4a\	4cc\
.	.	4r	8r	2r	.	2r	.	.	.	.	.	.	.	.	.	2r	2r
!	!	!	!LO:TX:a:t=P:problem:dynamika wpisana czerwonym atramentem: "for"	!	!	!	!	!	!	!	!	!	!	!	!	!	!
.	.	.	8ff\L	.	.	.	.	.	.	.	.	.	.	.	.	.	.
.	.	12ff\L	8gg\	.	.	.	.	.	.	.	.	.	.	.	.	.	.
.	.	12gg\	.	.	.	.	.	.	.	.	.	.	.	.	.	.	.
.	.	.	8ff\J	.	.	.	.	.	.	.	.	.	.	.	.	.	.
.	.	12ff\J	.	.	.	.	.	.	.	.	.	.	.	.	.	.	.
!	!	!	!	!LO:LB:g=original	!	!	!	!	!	!	!	!	!	!	!	!LO:LB:g=original	!
=32	=32	=32	=32	=32	=32	=32	=32	=32	=32	=32	=32	=32	=32	=32	=32	=32	=32
*	*	*2\right	*	*	*	*	*	*	*	*	*	*	*	*	*	*	*
!	!	!	!	!	!	!	!	!	!	!	!	!	!	!	!	!	!LO:TX:a:t=4
4B-\	.	2dd\	2bb-\	2BB-/	et	2B-\	et	2f\	.	et	2dd\	et	2.BB-/	2.B-/	4B-\	00r	00r
4BB-/	.	.	.	.	.	.	.	.	.	.	.	.	.	.	4BB-/	.	.
4E-\	X 6	8ff\L	8ddd\L	4E-\	ex	8d\L	ex	(>4g\	.	ex	(>8ff\L	ex	.	.	4E-\	.	.
.	.	8ee-\	8ccc\	.	.	8c\	.	.	.	.	8ee-\)	.	.	.	.	.	.
4F\	X n	8dd\	8bb-\	4F\	pa-	8B-\	pa-	4f\)	.	pa-	(>8dd\	pa-	4B-/	4f\	4F\	.	.
.	.	8cc\J	8aan\J	.	.	8An\J	.	.	.	.	8cc\J)	.	.	.	.	.	.
!	!	!LO:PB:g=original	!	!	!	!LO:LB:g=original	!	!	!	!	!LO:LB:g=original	!	!	!	!	!	!
=33	=33	=33	=33	=33	=33	=33	=33	=33	=33	=33	=33	=33	=33	=33	=33	=33	=33
2BB-/	.	4dd\	4bb-\	2BB-/	-tre	2B-\	-tre	2f\	.	-tre	2dd\	-tre	2BB-/	2B-/	2BB-/	.	.
.	.	12dd\L	12ff\L	.	.	.	.	.	.	.	.	.	.	.	.	.	.
.	.	12ee-\	12gg\	.	.	.	.	.	.	.	.	.	.	.	.	.	.
.	.	12dd\J	12ff\J	.	.	.	.	.	.	.	.	.	.	.	.	.	.
4r	.	4b-\	4dd\	4r	.	4r	.	4r	.	.	4r	.	2r	2r	4r	.	.
4B-\	.	12dd\L	12ff\L	4B-\	o-	4d\	na-	4b-\	.	na-	4ff\	na-	.	.	4B-\	.	.
.	.	12ee-\	12gg\	.	.	.	.	.	.	.	.	.	.	.	.	.	.
.	.	12dd\J	12ff\J	.	.	.	.	.	.	.	.	.	.	.	.	.	.
!	!	!	!	!	!	!	!	!	!	!	!	!	!	!	!LO:LB:g=original	!	!
=34	=34	=34	=34	=34	=34	=34	=34	=34	=34	=34	=34	=34	=34	=34	=34	=34	=34
!LO:TX:a:t=P:problem:zbędny takt 34	!	!LO:TX:a:t=P:problem:zbędny takt 34	!LO:TX:a:t=P:problem:zbędny takt 34	!LO:TX:a:t=P:problem:zbędny takt 34	!	!LO:TX:a:t=P:problem:zbędny takt 34	!	!LO:TX:a:t=P:problem:zbędny takt 34	!	!	!LO:TX:a:t=P:problem:zbędny takt 34	!	!LO:TX:a:t=P:problem:zbędny takt 34	!LO:TX:a:t=P:problem:zbędny takt 34	!LO:TX:a:t=P:problem:zbędny takt 34	!LO:TX:a:t=P:problem:zbędny takt 34	!LO:TX:a:t=P:problem:zbędny takt 34
1ryy	.	1ryy	1ryy	1ryy	.	1ryy	.	1ryy	.	.	1ryy	.	1ryy	2B-/	1ryy	.	.
.	.	.	.	.	.	.	.	.	.	.	.	.	.	2r	.	.	.
=35	=35	=35	=35	=35	=35	=35	=35	=35	=35	=35	=35	=35	=35	=35	=35	=35	=35
!	!	!	!	!	!	!	!	!	!	!	!LO:SIC:s=4gg	!	!	!	!	!	!
!	!	!	!	!	!	!	!	!	!	!	!LO:N:vis=8	!	!	!	!	!	!
4B-\	6 4	8ee-\L	8gg\L	2BB-/	-mni-	4e-\	.	2b-\	.	.	(>4gg\L	.	0r	0r	4B-\	.	.
.	.	8ff\	8aa-\	.	.	.	.	.	.	.	.	.	.	.	.	.	.
!	!	!	!	!	!	!	!	!	!	!	!LO:SIC:s=4ff	!	!	!	!	!	!
!LO:TX:t=P:problem:nieczytelne oznaczenie w bc. Przyjęto "	!	!	!	!	!	!	!	!	!	!	!LO:N:vis=8	!	!	!	!	!	!
4BB-/	5 9	8dd\	8ff\	.	.	4d\	.	.	.	.	4ff\J)	.	.	.	4BB-/	.	.
.	.	8ee-\J	8gg\J	.	.	.	.	.	.	.	.	.	.	.	.	.	.
4C/	.	8cc\L	8ee-\L	4C/	-a	4c\	.	(>4g\	.	.	(>4ee-\	-tum	.	.	4C/	.	.
.	.	8dd\	8ff\	.	.	.	.	.	.	.	.	.	.	.	.	.	.
8D/L	.	8b-\	8dd\	8D/L	.	4B-\	-tum	4b-\)	.	-tum	4dd\)	.	.	.	8D/L	.	.
8E-/J	.	8cc\J	8ee-\J	8E-/J	ſe-	.	.	.	.	.	.	.	.	.	8E-/J	.	.
!	!	!	!LO:LB:g=original	!	!	!	!	!LO:LB:g=original	!	!	!	!	!	!	!	!	!
=36	=36	=36	=36	=36	=36	=36	=36	=36	=36	=36	=36	=36	=36	=36	=36	=36	=36
4F\	.	12an/L	12cc\L	8F\	-cu-	8An\	an-	8g\	.	an-	(>8cc\	an-	.	.	4F\	1ryy	1ryy
.	.	12b-/	12dd\	.	.	.	.	.	.	.	.	.	.	.	.	.	.
.	.	.	.	8F\	.	8c\	.	8f\	.	.	8ee-\)	.	.	.	.	.	.
.	.	12cc/J	12ee-\J	.	.	.	.	.	.	.	.	.	.	.	.	.	.
4BB-/	.	4b-/	4dd\	4BB-/	-la	4B-\	-te	4f\	.	-te	4dd\	-te	.	.	4BB-/	.	.
2r	.	4r	4r	2r	.	2r	.	2r	.	.	2r	.	.	.	2r	.	.
.	.	12b-/L	12b-\L	.	.	.	.	.	.	.	.	.	.	.	.	.	.
.	.	12cc/	12cc\	.	.	.	.	.	.	.	.	.	.	.	.	.	.
.	.	12b-/J	12b-\J	.	.	.	.	.	.	.	.	.	.	.	.	.	.
!LO:LB:g=original	!	!	!	!	!	!	!	!	!	!	!	!	!	!	!	!	!LO:LB:g=original
=37	=37	=37	=37	=37	=37	=37	=37	=37	=37	=37	=37	=37	=37	=37	=37	=37	=37
2E-\	.	2g/	2ee-\	2E-\	an-	2B-\	an-	2g\	.	an-	2ee-\	an-	2E-/	2E-/	2E-\	2g/	2ee-\
4A-\	X 6	8b-/L	8gg\L	4A-\	.	4c\	.	8b-\L	.	.	8gg\L	.	4G/	4G/	4A-\	8b-/L	8gg\L
.	.	8a-/	8ff\	.	.	.	.	8a-\	.	.	8ff\	.	.	.	.	8a-/	8ff\
4B-\	.	8g/	8ee-\	4B-\	.	4B-\	.	8g\	.	.	8ee-\	.	4B-/	4B-/	4B-\	8g/	8ee-\
.	.	8f/J	8dd\J	.	.	.	.	8f\J	.	.	8dd\J	.	.	.	.	8f/J	8dd\J
!	!	!LO:LB:g=original	!	!LO:LB:g=original	!	!	!	!	!	!	!LO:LB:g=original	!	!	!	!	!	!
=38	=38	=38	=38	=38	=38	=38	=38	=38	=38	=38	=38	=38	=38	=38	=38	=38	=38
2E-\	.	4g/	4ee-\	2E-\	-te	2B-\	-te	2g\	.	-te	2ee-\	-te	2E-/	2E-/	2E-\	2g/	2ee-\
.	.	12g/L	12b-\L	.	.	.	.	.	.	.	.	.	.	.	.	.	.
.	.	12a-/	12cc\	.	.	.	.	.	.	.	.	.	.	.	.	.	.
.	.	12g/J	12b-\J	.	.	.	.	.	.	.	.	.	.	.	.	.	.
4r	.	4g/	4ee-\	4r	.	4r	.	4r	.	.	4r	.	2r	2r	4r	4r	4r
4E-\	.	12b-\L	12gg\L	4E-\	o-	4e-\	o-	4b-\	.	o-	4gg\	o-	.	.	4E-\	4b-\	4gg\
.	.	12cc\	12aa-\	.	.	.	.	.	.	.	.	.	.	.	.	.	.
.	.	12b-\J	12gg\J	.	.	.	.	.	.	.	.	.	.	.	.	.	.
!	!	!	!	!	!	!LO:LB:g=original	!	!	!	!	!	!	!	!LO:LB:g=original	!	!	!
=39	=39	=39	=39	=39	=39	=39	=39	=39	=39	=39	=39	=39	=39	=39	=39	=39	=39
4E-\	6 4	12cc\L	12aa-\L	4E-\	-mni-	4e-\	-mni-	(>4cc\	.	-mni-	(>4aa-\	-mni-	0r	0r	4E-\	4cc\	4aa-\
.	.	12dd\	12bb-\	.	.	.	.	.	.	.	.	.	.	.	.	.	.
.	.	12cc\J	12aa-\J	.	.	.	.	.	.	.	.	.	.	.	.	.	.
4E-\	5 3	12b-\L	12gg\L	4E-\	.	4e-\	.	4b-\)	.	.	4gg\)	.	.	.	4E-\	4b-\	4gg\
.	.	12cc\	12aa-\	.	.	.	.	.	.	.	.	.	.	.	.	.	.
.	.	12b-\J	12gg\J	.	.	.	.	.	.	.	.	.	.	.	.	.	.
4A-\	8 6	12a-/L	12ff\L	4A-\	-a	4c\	-a	4a-\	.	-a	4ff\	-a	.	.	4A-\	4a-\	4ff\
.	.	12b-/	12gg\	.	.	.	.	.	.	.	.	.	.	.	.	.	.
.	.	12a-/J	12ff\J	.	.	.	.	.	.	.	.	.	.	.	.	.	.
4An\	7 5	12g/L	12ee-\L	4An\	sae-	4c\	sae-	4g\	.	sae-	4ee-\	sae-	.	.	4An\	4g\	4ee-\
.	.	12a-/	12ff\	.	.	.	.	.	.	.	.	.	.	.	.	.	.
.	.	12g/J	12ee-\J	.	.	.	.	.	.	.	.	.	.	.	.	.	.
=40	=40	=40	=40	=40	=40	=40	=40	=40	=40	=40	=40	=40	=40	=40	=40	=40	=40
4B-\	.	4g/	4ee-\	4B-\	-cu-	4B-\	-cu-	4f\	.	-cu-	4ee-\	-cu-	.	.	4B-\	4f/	4ee-\
4BB-/	.	4f/	4dd\	4BB-/	-la	4B-\	-la	4g\	.	-la	4dd\	-la	.	.	4BB-/	4g/	4dd\
!	!	!	!	!	!	!	!	!	!	!	!	!	!	!	!	!LO:TX:a:t=P:problem:nad nutą czerwonym atramenetem: "pauz:"	!
8B-\L	.	2r	2r	2r	.	2r	.	2r	.	.	2r	.	.	.	8B-\L	2r	2r
8A-\	.	.	.	.	.	.	.	.	.	.	.	.	.	.	8A-\	.	.
8G\	.	.	.	.	.	.	.	.	.	.	.	.	.	.	8G\	.	.
8F\J	.	.	.	.	.	.	.	.	.	.	.	.	.	.	8F\J	.	.
!	!	!	!LO:LB:g=original	!	!	!	!	!	!	!	!	!	!	!	!	!	!
=41	=41	=41	=41	=41	=41	=41	=41	=41	=41	=41	=41	=41	=41	=41	=41	=41	=41
!	!	!	!	!	!	!	!	!	!	!	!	!	!	!	!	!LO:TX:a:t=P:problem:nad i pod pauzą czerwonym atramenetem: "7"	!
!	!	!	!	!	!	!	!	!	!	!	!	!	!	!	!	!LO:TX:a:t=P:problem:w źródle jedna pauza wielotaktowa	!
4G\	6 5-	8e-/	8dd\L	1G	De-	1B-	De-	1e-	.	De-	1dd-X	De-	1E-	1E-	4G\	1r	00r
.	.	4e-/	8ee-\	.	.	.	.	.	.	.	.	.	.	.	.	.	.
4G\	.	.	8dd\	.	.	.	.	.	.	.	.	.	.	.	4G\	.	.
.	.	4e-/	8ee-\J	.	.	.	.	.	.	.	.	.	.	.	.	.	.
4G\	.	.	8dd\L	.	.	.	.	.	.	.	.	.	.	.	4G\	.	.
.	.	4e-/	8ee-\	.	.	.	.	.	.	.	.	.	.	.	.	.	.
4G\	.	.	8dd\	.	.	.	.	.	.	.	.	.	.	.	4G\	.	.
.	.	8e-/	8ee-\J	.	.	.	.	.	.	.	.	.	.	.	.	.	.
!	!	!LO:LB:g=original	!	!	!	!	!	!LO:LB:g=original	!	!	!	!	!	!	!LO:LB:g=original	!	!
=42	=42	=42	=42	=42	=42	=42	=42	=42	=42	=42	=42	=42	=42	=42	=42	=42	=42
4A-\	.	8e-/	8cc\L	1A-	-um	1A-	-um	1e-	.	-um	1cc	-um	1E-	1E-	4A-\	1r	.
.	.	4e-/	8aa-X\	.	.	.	.	.	.	.	.	.	.	.	.	.	.
4A-\	.	.	8cc\	.	.	.	.	.	.	.	.	.	.	.	4A-\	.	.
.	.	4e-/	8aa-\J	.	.	.	.	.	.	.	.	.	.	.	.	.	.
4A-\	.	.	8cc\L	.	.	.	.	.	.	.	.	.	.	.	4A-\	.	.
.	.	4e-/	8aa-X\	.	.	.	.	.	.	.	.	.	.	.	.	.	.
4A-\	.	.	8cc\	.	.	.	.	.	.	.	.	.	.	.	4A-\	.	.
.	.	8e-/	8aa-\J	.	.	.	.	.	.	.	.	.	.	.	.	.	.
!	!	!	!	!	!	!	!	!	!	!	!	!	!LO:LB:g=original	!	!	!	!
=43	=43	=43	=43	=43	=43	=43	=43	=43	=43	=43	=43	=43	=43	=43	=43	=43	=43
!	!	!	!	!	!	!	!	!	!	!	!	!	!LO:TX:a:t=P:problem:początek znaku repetycji (dopisany ołówkiem)	!	!	!	!
4An\	6 5	8f/	8ee-\L	1An	ve-	1c	ve-	1f	.	ve-	1ee-	ve-	2BB-/	2B-/	4An\	1r	.
.	.	4f/	8ff\	.	.	.	.	.	.	.	.	.	.	.	.	.	.
4A\	.	.	8ee-\	.	.	.	.	.	.	.	.	.	.	.	4A\	.	.
.	.	4f/	8ff\J	.	.	.	.	.	.	.	.	.	.	.	.	.	.
4A\	.	.	8ee-\L	.	.	.	.	.	.	.	.	.	2BB-/	2B-/	4A\	.	.
.	.	4f/	8ff\	.	.	.	.	.	.	.	.	.	.	.	.	.	.
4A\	.	.	8ee-\	.	.	.	.	.	.	.	.	.	.	.	4A\	.	.
.	.	8f/	8ff\J	.	.	.	.	.	.	.	.	.	.	.	.	.	.
!LO:LB:g=original	!	!	!	!	!	!	!	!	!	!	!LO:LB:g=original	!	!	!	!	!	!
=44	=44	=44	=44	=44	=44	=44	=44	=44	=44	=44	=44	=44	=44	=44	=44	=44	=44
4B-\	.	8f/	8ddn\L	1B-	-rum	1B-	-rum	1f	.	-rum	1ddn	-rum	2BB-/	2B-/	4B-\	1r	.
.	.	4f/	8bb-\	.	.	.	.	.	.	.	.	.	.	.	.	.	.
4B-\	.	.	8dd\	.	.	.	.	.	.	.	.	.	.	.	4B-\	.	.
.	.	4f/	8bb-\J	.	.	.	.	.	.	.	.	.	.	.	.	.	.
4B-\	.	.	8dd\L	.	.	.	.	.	.	.	.	.	2BB-/	2B-/	4B-\	.	.
.	.	4f/	8bb-\	.	.	.	.	.	.	.	.	.	.	.	.	.	.
4B-\	.	.	8dd\	.	.	.	.	.	.	.	.	.	.	.	4B-\	.	.
.	.	8f/	8bb-\J	.	.	.	.	.	.	.	.	.	.	.	.	.	.
!	!	!	!	!LO:LB:g=original	!	!	!	!	!	!	!	!	!LO:TX:a:t=P:problem:koniec znaku repetycji (dopisany ołówkiem)	!	!	!	!
=45	=45	=45	=45	=45	=45	=45	=45	=45	=45	=45	=45	=45	=45	=45	=45	=45	=45
!	!	!	!	!	!	!	!	!	!	!	!	!	!LO:TX:a:t=P:problem:takty 44-45 zapisane jako repetycja	!	!	!	!
4D\	6 5	8B-/	8a-X/L	1D	de	1B-	de	1a-	.	de	1ff	de	2BB-/	2B-/	4D\	1r	0r
.	.	4B-/	8b-/	.	.	.	.	.	.	.	.	.	.	.	.	.	.
4D\	.	.	8a-/	.	.	.	.	.	.	.	.	.	.	.	4D\	.	.
.	.	4B-/	8b-/J	.	.	.	.	.	.	.	.	.	.	.	.	.	.
4D\	.	.	8a-/L	.	.	.	.	.	.	.	.	.	2BB-/	2B-/	4D\	.	.
.	.	4B-/	8b-/	.	.	.	.	.	.	.	.	.	.	.	.	.	.
4D\	.	.	8a-/	.	.	.	.	.	.	.	.	.	.	.	4D\	.	.
.	.	8B-/	8b-/J	.	.	.	.	.	.	.	.	.	.	.	.	.	.
!	!	!	!LO:LB:g=original	!	!	!	!	!	!	!	!	!	!	!	!	!	!
=46	=46	=46	=46	=46	=46	=46	=46	=46	=46	=46	=46	=46	=46	=46	=46	=46	=46
4E-\	.	8B-/	8g/L	2E-\	De-	2c\	De-	2g\	.	de-	2ee-\	De-	2BB-/	2B-/	4E-\	1r	.
.	.	4B-/	8ee-/	.	.	.	.	.	.	.	.	.	.	.	.	.	.
4E-\	.	.	8g/	.	.	.	.	.	.	.	.	.	.	.	4E-\	.	.
.	.	4B-/	8ee-/J	.	.	.	.	.	.	.	.	.	.	.	.	.	.
8E-\L	.	.	8g/L	8E-\L	-o	2B-\	-o	2g\	.	-o	2ee-\	-o	2BB-/	2B-/	8E-\L	.	.
8F\	.	4B-/	8ee-/	8F\	.	.	.	.	.	.	.	.	.	.	8F\	.	.
8G\	.	.	8g/	8G\	.	.	.	.	.	.	.	.	.	.	8G\	.	.
8A-\J	.	8B-/	8ee-/J	8A-\J	.	.	.	.	.	.	.	.	.	.	8A-\J	.	.
!	!	!LO:LB:g=original	!	!	!	!	!	!	!	!	!	!	!	!	!	!	!
=47	=47	=47	=47	=47	=47	=47	=47	=47	=47	=47	=47	=47	=47	=47	=47	=47	=47
4B-\	6 4	4g/	4ee-\	4B-\	ve-	4B-\	ve-	4g\	.	ve-	4ee-\	ve-	2BB-/	2B-/	4B-\	1r	1r
4BB-/	5 3	4f/	4dd\	4BB-/	-ro	4B-\	-ro	4f\	.	-ro	4dd\	-ro	.	.	4BB-/	.	.
!	!	!	!LO:TX:a:t=P:problem:dynamika wpisana czerwonym atramentem: "p:"	!	!	!	!	!	!	!	!	!	!	!	!	!	!
2r	.	2r	2r	2r	.	2r	.	2r	.	.	2r	.	2r	2r	2r	.	.
!	!	!	!	!	!	!LO:LB:g=original	!	!	!	!	!	!	!	!	!LO:LB:g=original	!	!
=48	=48	=48	=48	=48	=48	=48	=48	=48	=48	=48	=48	=48	=48	=48	=48	=48	=48
!	!	!	!	!	!	!	!	!	!	!	!	!	!	!	!	!LO:TX:a:t=P:problem:nad nutą czerwonym atramenetem: "Solo"	!LO:TX:a:t=P:problem:nad nutą czerwonym atramenetem: "Solo"
!LO:TX:a:t=9	!	!LO:TX:a:t=P:problem:dynamika wpisana czerwonym atramentem: "piano"	!	!	!	!LO:TX:a:t=4	!	!	!	!	!	!	!	!	!	!	!LO:SIC:s=1gg
!	!	!	!	!	!	!	!	!	!	!	!	!	!	!	!	!	!LO:N:vis=2
00r	.	4e-/	4e-/	00r	.	00r	.	1b-	.	De-	1gg	De-	00r	00r	00r	1b-	1gg
.	.	4e-/	4e-/	.	.	.	.	.	.	.	.	.	.	.	.	.	.
.	.	4e-/	4e-/	.	.	.	.	.	.	.	.	.	.	.	.	.	.
.	.	4e-/	4e-/	.	.	.	.	.	.	.	.	.	.	.	.	.	.
=49	=49	=49	=49	=49	=49	=49	=49	=49	=49	=49	=49	=49	=49	=49	=49	=49	=49
.	.	4B-/	4B-/	.	.	.	.	1a-	.	.	1ff	.	.	.	.	1a-	1ff
.	.	4B-/	4B-/	.	.	.	.	.	.	.	.	.	.	.	.	.	.
.	.	4B-/	4B-/	.	.	.	.	.	.	.	.	.	.	.	.	.	.
.	.	4B-/	4B-/	.	.	.	.	.	.	.	.	.	.	.	.	.	.
=50	=50	=50	=50	=50	=50	=50	=50	=50	=50	=50	=50	=50	=50	=50	=50	=50	=50
.	.	4e-/	4e-/	.	.	.	.	2g\	.	-um	2ee-\	-um	.	.	.	2g/	2ee-\
.	.	4e-/	4e-/	.	.	.	.	.	.	.	.	.	.	.	.	.	.
.	.	4g/	4g/	.	.	.	.	4r	.	.	4r	.	.	.	.	4r	4r
.	.	4e-/	4e-/	.	.	.	.	4g\	.	de	4ee-\	de	.	.	.	4g/	4ee-\
!	!	!	!	!	!	!	!	!	!	!	!LO:LB:g=original	!	!	!	!	!LO:LB:g=original	!LO:LB:g=original
=51	=51	=51	=51	=51	=51	=51	=51	=51	=51	=51	=51	=51	=51	=51	=51	=51	=51
.	.	4B-/	4B-/	.	.	.	.	4f\	.	de-	4dd\	de-	.	.	.	4f/	4dd\
.	.	4B-/	4B-/	.	.	.	.	4g\	.	-o	4ee-\	-o	.	.	.	4g/	4ee-\
.	.	4B-/	4B-/	.	.	.	.	4a-\	.	ve-	4ff\	ve-	.	.	.	4a-/	4ff\
.	.	4B-/	4B-/	.	.	.	.	8g\L	.	.	8ee-\L	.	.	.	.	8g/L	8ee-\L
.	.	.	.	.	.	.	.	8f\J	.	.	8dd\J	.	.	.	.	8f/J	8dd\J
!	!	!	!	!	!	!	!	!LO:LB:g=original	!	!	!	!	!	!	!	!LO:TX:a:t=P:problem:skreślony takt po tym takcie	!LO:TX:a:t=P:problem:skreślony takt po tym takcie
=52	=52	=52	=52	=52	=52	=52	=52	=52	=52	=52	=52	=52	=52	=52	=52	=52	=52
00r	.	4e-/	4e-/	1G	et	1B-	et	2g\	.	-ro	2ee-\	-ro	00r	00r	00r	1gg	1bb-
.	.	4e-/	4e-/	.	.	.	.	.	.	.	.	.	.	.	.	.	.
.	.	4e-/	4e-/	.	.	.	.	2r	.	.	2r	.	.	.	.	.	.
.	.	4e-/	4e-/	.	.	.	.	.	.	.	.	.	.	.	.	.	.
!	!	!LO:LB:g=original	!	!	!	!	!	!	!	!	!	!	!	!	!	!	!
=53	=53	=53	=53	=53	=53	=53	=53	=53	=53	=53	=53	=53	=53	=53	=53	=53	=53
!	!	!	!	!	!	!	!	!	!	!	!LO:TX:a:t=P:problem:nad pauzą wpisana czerwonym atramentem: "4"	!	!	!	!	!	!
.	.	4B-/	4B-/	1F	vi-	1A-	vi-	00r	.	.	00r	.	.	.	.	1ff	1aa-
.	.	4B-/	4B-/	.	.	.	.	.	.	.	.	.	.	.	.	.	.
.	.	4B-/	4B-/	.	.	.	.	.	.	.	.	.	.	.	.	.	.
.	.	4B-/	4B-/	.	.	.	.	.	.	.	.	.	.	.	.	.	.
!	!	!	!LO:PB:g=original	!	!	!	!	!	!	!	!	!	!	!	!	!	!
=54	=54	=54	=54	=54	=54	=54	=54	=54	=54	=54	=54	=54	=54	=54	=54	=54	=54
.	.	4e-/	4e-/	2E-\	-tam	2G/	-tam	.	.	.	.	.	.	.	.	2ee-\	2gg\
.	.	4e-/	4e-/	.	.	.	.	.	.	.	.	.	.	.	.	.	.
.	.	4g/	4g/	4r	.	4r	.	.	.	.	.	.	.	.	.	4r	4r
.	.	4e-/	4e-/	4E-\	ven-	4G/	ven-	.	.	.	.	.	.	.	.	4ee-\	4gg\
!	!	!	!	!LO:LB:g=original	!	!	!	!	!	!	!	!	!	!	!	!	!
=55	=55	=55	=55	=55	=55	=55	=55	=55	=55	=55	=55	=55	=55	=55	=55	=55	=55
.	.	4B-/	4B-/	4D\	-tu-	4F/	-tu-	.	.	.	.	.	.	.	.	4dd\	4ff\
.	.	4B-/	4B-/	4E-\	-ri	4G/	-ri	.	.	.	.	.	.	.	.	4ee-\	4gg\
.	.	4A-/	4A-/	4F\	sae-	4A-/	sae-	.	.	.	.	.	.	.	.	4ff\	4aa-\
.	.	4An/	4An/	4E-\	-cu-	4G/	-cu-	.	.	.	.	.	.	.	.	4ee-\	4gg\
=56	=56	=56	=56	=56	=56	=56	=56	=56	=56	=56	=56	=56	=56	=56	=56	=56	=56
1r	.	2B-/	2B-/	2D\	-li	2F/	-li	.	.	.	.	.	1r	1r	1r	2dd\	2ff\
.	.	4r	4r	2r	.	2r	.	.	.	.	.	.	.	.	.	4r	4r
!	!	!	!	!	!	!	!	!	!	!	!	!	!	!	!	!LO:TX:a:t=vi	!LO:TX:a:t=vi
.	.	12b-\L	12b-\L	.	.	.	.	.	.	.	.	.	.	.	.	4r	4ryy
.	.	12cc\	12cc\	.	.	.	.	.	.	.	.	.	.	.	.	.	.
.	.	12b-\J	12b-\J	.	.	.	.	.	.	.	.	.	.	.	.	.	.
!	!	!	!	!	!	!LO:PB:g=original	!	!	!	!	!	!	!	!LO:LB:g=original	!	!	!
=57	=57	=57	=57	=57	=57	=57	=57	=57	=57	=57	=57	=57	=57	=57	=57	=57	=57
!	!	!	!	!	!	!	!	!	!	!	!	!	!	!	!	!LO:TX:a:t=P:problem:"dostawiony" takt	!
!	!	!	!	!	!	!	!	!	!	!	!	!	!	!	!	!LO:TX:a:t=de	!LO:TX:a:t=P:problem:"dostawiony" takt
2r	.	4g/	4ee-\	2r	.	2r	.	2r	.	.	2r	.	2E-/	2E-/	2r	4r	4r
.	.	12g/L	12ee-\L	.	.	.	.	.	.	.	.	.	.	.	.	2r	2r
.	.	12a-/	12ff\	.	.	.	.	.	.	.	.	.	.	.	.	.	.
.	.	12g/J	12ee-\J	.	.	.	.	.	.	.	.	.	.	.	.	.	.
4r	.	4b-/	4gg\	4r	.	4r	.	4r	.	.	4r	.	2G/	2G/	4r	.	.
!	!	!	!	!	!	!	!	!	!	!	!	!	!	!	!	!	!LO:TX:a:t=de
4E-\	.	8cc/L	8aa-\L	4E-\	qui	4B-\	qui	(>4g\	.	qui	(>4b-\	qui	.	.	4E-\	4gg\	4bb-\
.	.	8b-/J	8gg\J	.	.	.	.	.	.	.	.	.	.	.	.	.	.
!	!	!	!	!	!	!	!	!	!	!	!	!	!	!	!	!LO:LB:g=original	!
=58	=58	=58	=58	=58	=58	=58	=58	=58	=58	=58	=58	=58	=58	=58	=58	=58	=58
4BB-/	X 7	4a-/	4ff\	4B-\	p(ro)-	4B-\	p(ro)-	4f\)	.	p(ro)-	4a-\)	p(ro)-	4B-/	4B-/	4BB-/	4ff\	4aa-\
4E-\	.	4g/	4ee-\	4E-\	-pter	4B-\	-pter	4e-\	.	-pter	4g\	-pter	4E-/	4E-/	4E-\	4ee-\	4gg\
2r	.	4r	4r	2r	.	2r	.	2r	.	.	2r	.	2r	2r	2r	2r	2r
.	.	12g/L	12b-\L	.	.	.	.	.	.	.	.	.	.	.	.	.	.
.	.	12a-/	12cc\	.	.	.	.	.	.	.	.	.	.	.	.	.	.
.	.	12g/J	12b-\J	.	.	.	.	.	.	.	.	.	.	.	.	.	.
!	!	!LO:LB:g=original	!	!	!	!	!	!	!	!	!	!	!	!	!	!	!LO:LB:g=original
=59	=59	=59	=59	=59	=59	=59	=59	=59	=59	=59	=59	=59	=59	=59	=59	=59	=59
2r	.	4g/	4ee-\	2r	.	2r	.	2r	.	.	2r	.	2E-/	2E-/	2r	2r	2r
.	.	12ee-\L	12gg\L	.	.	.	.	.	.	.	.	.	.	.	.	.	.
.	.	12ff\	12aa-\	.	.	.	.	.	.	.	.	.	.	.	.	.	.
.	.	12ee-\J	12gg\J	.	.	.	.	.	.	.	.	.	.	.	.	.	.
!	!	!	!LO:LB:g=original	!	!	!	!	!	!	!	!	!	!	!	!	!	!
4r	.	12gg\L	4bb-\	4r	.	4r	.	4r	.	.	4r	.	2G/	2G/	4r	4r	4r
.	.	12aa-\	.	.	.	.	.	.	.	.	.	.	.	.	.	.	.
.	.	12gg\J	.	.	.	.	.	.	.	.	.	.	.	.	.	.	.
4E-\	.	4ff\	8ccc\L	(>4E-\	no-	4B-\	no-	4b-\	.	no-	(>4gg\	no-	.	.	4E-\	4b-\	(>4gg\
.	.	.	8bb-\J	.	.	.	.	.	.	.	.	.	.	.	.	.	.
!LO:PB:g=original	!	!	!	!	!	!	!	!	!	!	!LO:LB:g=original	!	!LO:LB:g=original	!	!	!	!
=60	=60	=60	=60	=60	=60	=60	=60	=60	=60	=60	=60	=60	=60	=60	=60	=60	=60
4BB-/	X 7	4ff\	4aa-\	4B-\)	.	4B-\	.	4a-\	.	.	4ff\)	.	2B-/	2B-/	4BB-/	4a-\	4ff\)
4E-\	.	4ee-\	4gg\	4E-\	-stram	4B-\	-stram	4g\	.	-stram	4ee-\	-stram	.	.	4E-\	4g\	4ee-\
2r	.	2r	2r	2r	.	2r	.	2r	.	.	2r	.	2r	2r	2r	2r	2r
!	!	!	!	!LO:LB:g=original	!	!	!	!	!	!	!	!	!	!	!	!	!
=61	=61	=61	=61	=61	=61	=61	=61	=61	=61	=61	=61	=61	=61	=61	=61	=61	=61
*tremolo	*	*	*	*	*	*	*	*	*	*	*	*	*	*	*tremolo	*	*
8B-\L	6 4	8g/	8ee-\	1B-	no-	1B-	no-	1g	.	no-	1ee-	no-	4E-/	4E-/	8B-\L	1g	1ee-
8B-\	.	4g/	4ee-\	.	.	.	.	.	.	.	.	.	.	.	8B-\	.	.
8B-\	.	.	.	.	.	.	.	.	.	.	.	.	4G/	4G/	8B-\	.	.
8B-\J	.	4g/	4ee-\	.	.	.	.	.	.	.	.	.	.	.	8B-\J	.	.
8B-\L	.	.	.	.	.	.	.	.	.	.	.	.	4B-/	4B-/	8B-\L	.	.
8B-\	.	4g/	4ee-\	.	.	.	.	.	.	.	.	.	.	.	8B-\	.	.
8B-\	.	.	.	.	.	.	.	.	.	.	.	.	4e-\	4e-\	8B-\	.	.
8B-\J	.	8g/	8ee-\	.	.	.	.	.	.	.	.	.	.	.	8B-\J	.	.
*Xtremolo	*	*	*	*	*	*	*	*	*	*	*	*	*	*	*Xtremolo	*	*
=62	=62	=62	=62	=62	=62	=62	=62	=62	=62	=62	=62	=62	=62	=62	=62	=62	=62
8A-\L	6_ 4_ 2_	8f/	8dd\	2A-\	.	2c\	.	2f\	.	.	2dd\	.	4B-/	4B-/	8A-\L	1f	1dd
8B-\	.	4f/	4dd\	.	.	.	.	.	.	.	.	.	.	.	8B-\	.	.
8A-\	.	.	.	.	.	.	.	.	.	.	.	.	8r	8r	8A-\	.	.
8B-\J	.	4f/	4dd\	.	.	.	.	.	.	.	.	.	8B-/	8B-/	8B-\J	.	.
8A-\L	.	.	.	2A-\	-stram	2c\	-stram	2f\	.	-stram	2dd\	-stram	4B-/	4B-/	8A-\L	.	.
8B-\	.	4f/	4dd\	.	.	.	.	.	.	.	.	.	.	.	8B-\	.	.
8A-\	.	.	.	.	.	.	.	.	.	.	.	.	8r	8r	8A-\	.	.
8B-\J	x	8f/	8dd\	.	.	.	.	.	.	.	.	.	8B-/	8B-/	8B-\J	.	.
!	!	!	!	!	!	!LO:LB:g=original	!	!	!	!	!	!	!	!LO:LB:g=original	!LO:LB:g=original	!	!
=63	=63	=63	=63	=63	=63	=63	=63	=63	=63	=63	=63	=63	=63	=63	=63	=63	=63
4G\	.	4g/	4ee-\	4G\	ſa-	4B-\	ſa-	4e-\	.	sa-	4ee-\	sa-	4e-\	4e-\	4G\	4e-/	4ee-\
*	*	*	*	*	*	*	*	*	*	*	*Xtuplet	*	*	*	*	*Xtuplet	*Xtuplet
!	!	!	!	!	!	!	!	!	!	!	!	!	!	!	!	!LO:TX:a:t=P:problem:mixed beam	!
4A-\	.	4dd\	12cc/L	4A-\	.	4c\	.	12a-\L	.	.	12cc\L	.	4B-/	4B-/	4A-\	12a-/L	12cc\L
.	.	.	12b-/	.	.	.	.	12g\	.	.	12b-\	.	.	.	.	12gg\	12bb-\
.	.	.	12a-/J	.	.	.	.	12f\J	.	.	12a-\J	.	.	.	.	12ff\J	12aa-\J
4B-\	6 4	12a-/L	4g/	4B-\	-lu-	2B-\	-lu-	4e-\	.	-lu-	4g/	-lu-	4G/	4G/	4B-\	4ee-\	4gg\
.	.	12g/	.	.	.	.	.	.	.	.	.	.	.	.	.	.	.
.	.	12f/J	.	.	.	.	.	.	.	.	.	.	.	.	.	.	.
4BB-/	5 3	8e-/L	4f/	4BB-/	.	.	.	4d\	.	.	4f/	.	4E-/	4E-/	4BB-/	4dd\	4ff\
.	.	8d/J	.	.	.	.	.	.	.	.	.	.	.	.	.	.	.
!	!	!LO:LB:g=original	!	!	!	!	!	!LO:PB:g=original	!	!	!	!	!	!	!	!	!
=64	=64	=64	=64	=64	=64	=64	=64	=64	=64	=64	=64	=64	=64	=64	=64	=64	=64
4E-\	.	4e-/	4e-/	2E-\	-tem	2B-\	-tem	2e-\	.	-tem	2e-/	-tem.	4E-/	4e-\	4E-\	2ee-\	2ee-\
4GG/	.	4G/	4G/	.	.	.	.	.	.	.	.	.	4E-/	4e-\	4GG/	.	.
!	!	!	!	!	!	!	!	!	!	!	!	!	!	!	!	!LO:TX:b:t=Verte Cito Et incarnat(us).	!LO:TX:b:t=Verte cito Et incarnatus
4AA-/	.	4A-/	4A-/	2r	.	2r	.	2r	.	.	2r	.	4BB-/	4B-/	4AA-/	2r	2r
4BB-/	.	4B-/	4B-/	.	.	.	.	.	.	.	.	.	4BB-/	4B-/	4BB-/	.	.
!	!	!	!	!	!	!	!	!	!	!	!	!	!LO:LB:g=original	!	!	!	!
=65	=65	=65	=65	=65	=65	=65	=65	=65	=65	=65	=65	=65	=65	=65	=65	=65	=65
!	!	!	!LO:N:vis=2.	!	!	!	!	!	!	!	!LO:TX:a:t=P:problem:partia kończy się w t. 64	!	!	!	!	!LO:TX:a:t=P:problem:partia kończy się w t. 64	!LO:TX:a:t=P:problem:partia kończy się w t. 64
2EE-/	.	2e-/	1e-	1r	.	1r	.	1r	.	.	1ryy	.	2E-/	2G/	2EE-/	1ryy	1ryy
!	!	!LO:TX:b:t=Verte Et incarnatus.	!	!	!	!	!	!	!	!	!	!	!	!	!LO:TX:b:t=Verte Et incarnatus	!	!
2r	.	2r	.	.	.	.	.	.	.	.	.	.	2r	2r	2r	.	.
==	==	==	==	==	==	==	==	==	==	==	==	==	==	==	==	==	==
*-	*-	*-	*-	*-	*-	*-	*-	*-	*-	*-	*-	*-	*-	*-	*-	*-	*-
!!!system-decoration: [(s1,s2,s3)][(s4,s5)][(s6,s7,s8,s9)][(s10,s11)][(s12)]
!!!RDF**kern: > = above
!!!RDF**kern: < = below
!!!ENC: Marcin Jachim
!!!END: 2020-06-26
!!!EED: Mateusz Mrugas
!!!EST: 2020-11-19
